X:1
T: Miss Stewart of Pittyvaich's Strathspey
C:William Marshall
R:Strathspey
Q: 128
K:G
M:4/4
L:1/16
|:G3D GB3 G,3B, G,3B|c3A B3G EA3 A3B|G3D GB3 G,3B, G,3g|dB3 A3G D2G2 G4|
G3D GB3 G,3B, G,3B|c3A B3G EA3 A3B|G3D GB3 G,3B, G,3g|dB3 A3G D2 G2G4|
Gg3 g4 d3g b3g|a3g b3g A2a2 a4|Gg3 g4 d3g b3a|ge3 d3B D2G2 G4|
Gg3 g4 d3g b3g|a3g b3g A2a2 a4|gd3 b3a g3d eg3|dB3 A3G D2G2 G4:|

